server/website/public/icons/base/event.svg

<svg width="48" height="48" viewBox="0 0 48 48" fill="none" xmlns="http://www.w3.org/2000/svg">
<path d="M33.7778 26.4H26.4444C25.1 26.4 24 27.48 24 28.8V36C24 37.32 25.1 38.4 26.4444 38.4H33.7778C35.1222 38.4 36.2222 37.32 36.2222 36V28.8C36.2222 27.48 35.1222 26.4 33.7778 26.4ZM33.7778 2.4V4.8H14.2222V2.4C14.2222 1.08 13.1222 0 11.7778 0C10.4333 0 9.33333 1.08 9.33333 2.4V4.8H6.88889C4.17556 4.8 2.02444 6.96 2.02444 9.6L2 43.2C2 44.473 2.51508 45.6939 3.43192 46.5941C4.34877 47.4943 5.59227 48 6.88889 48H41.1111C43.8 48 46 45.84 46 43.2V9.6C46 6.96 43.8 4.8 41.1111 4.8H38.6667V2.4C38.6667 1.08 37.5667 0 36.2222 0C34.8778 0 33.7778 1.08 33.7778 2.4ZM38.6667 43.2H9.33333C7.98889 43.2 6.88889 42.12 6.88889 40.8V16.8H41.1111V40.8C41.1111 42.12 40.0111 43.2 38.6667 43.2Z" fill="black"/>
</svg>

<svg width="48" height="48" fill="none" xmlns="http://www.w3.org/2000/svg"><path d="M33.778 26.4h-7.334C25.1 26.4 24 27.48 24 28.8V36c0 1.32 1.1 2.4 2.444 2.4h7.334c1.344 0 2.444-1.08 2.444-2.4v-7.2c0-1.32-1.1-2.4-2.444-2.4zm0-24v2.4H14.222V2.4c0-1.32-1.1-2.4-2.444-2.4-1.345 0-2.445 1.08-2.445 2.4v2.4H6.89c-2.713 0-4.865 2.16-4.865 4.8L2 43.2c0 1.273.515 2.494 1.432 3.394.917.9 2.16 1.406 3.457 1.406H41.11C43.8 48 46 45.84 46 43.2V9.6c0-2.64-2.2-4.8-4.889-4.8h-2.444V2.4c0-1.32-1.1-2.4-2.445-2.4-1.344 0-2.444 1.08-2.444 2.4zm4.889 40.8H9.333c-1.344 0-2.444-1.08-2.444-2.4v-24H41.11v24c0 1.32-1.1 2.4-2.444 2.4z" fill="#000"/></svg>
